X: 127
T: REEL: Fermoy Lasses
C: C: Trad.; S: Various
C: Set Leaders: Sophie, Anton, Tania
Z: Anton Zille ed.; ceili at The Session
N: https://thesession.org/members/26966/sets/74626
R: Reel
M: 4/4
L: 1/8
Q: 1/2=100
K: Emin
|:GE E/E/E BE E/E/E|GE E/E/E BcBA|GE E/E/E EGBG|AFDF AcBA|
GE E/E/E BE E/E/E|GE E/E/E B2 BA|G2 GF GBdB|AFDF AcBA:||
|:G2 BG dGBG|G/G/G Bd ef g2|G/G/G BG dGBG|AFDF AcBA|
G2 BG dGBG|G/G/G Bd ef g2|gage dedB|AFDF AcBA:||

